!!!OTL: Ain Tagweis von den heyligen dreyn kuennigen
!!!ARE: Europa, Mitteleuropa, Deutschland
!!!SCT: A0512B
!!!YEM: Copyright 1995, estate of Helmut Schaffrath.
**kern
*ICvox
*Ivox
*M4/4
*k[f#c#]
*D:
{4d
4d
4d
=1
4a
4b
4ccn
4a
=2
4g
2a
4r}
=3
{4a
4g
4fn
4e
=4
4d
4d
4cn
4d
=5
4fn
4e
2d
=6
4r}
{4d
4d
4d
=7
4a
4b
4ccn
4a
=8
4g
2a
4r}
=9
{4a
4g
4fn
4e
=10
4d
4d
4cn
4d
=11
4fn
4e
2d
=12
4r}
{4d
4e
4fn
=13
4g
4a
4g
4fn
=14
2g
4r}
{4d
=15
4e
4fn
4g
4a
=16
4g
4fn
2g}
=17
{4a
4g
4fn
4e
=18
4e
4d
4cn
4d
=19
4fn
4e
2d
=20
4r}
==
!!!AGN: Romanze, Ballade, Lied
!! Lambacher Hs. fol. 171, von Boehme in moderne Noten uebertragen.
!!!ONB: ESAC (Essen Associative Code) Database: ALTDEU
!!!AMT: simple quadruple
!!!AIN: vox
!!!EED: Helmut Schaffrath
!!!EEV: 1.0
*-
